X: 41570
T: Untitled
R: reel
M: 4/4
K: Dmajor
"D"D2 DE FAAF|"D/B"GAFG EGFE|"D"{E}F2 DB, A,B,DE|D/E/F ED "D/C#"{D}EA,CE|
"D"D2 DE FA ~AA|"D/B"BABd "D"A2 DB-|"D/B"BABd {B}dBAF|"D/C#"EDEF EA,A,B,|
"D"{B,}D2 DE FAAF|"D/B"GAFG EGFE|"D"EFDB, A,B,DE|D/E/F ED "D/C#"{D}EA,CE|
"D"D2 DE FA E/F/A|"D/B"~BABd "D"A2 DB-|"D/B"BABd {B}dABd|"D/C#"edef {d}eEAe|

